packages/admin/admin-icons/icons/file.svg

<svg xmlns="http://www.w3.org/2000/svg" width="16" height="16" viewBox="0 0 16 16"><path fill="#242424" fill-rule="evenodd" d="M3.5,0 L9.53959156,0.00156876395 L9.58987563,0.00805566941 L9.65473232,0.024543968 L9.72678591,0.0543895452 L9.75235957,0.0682646574 L9.82214364,0.117593731 L13.8535534,4.14644661 C14.147537,4.44043021 13.9728055,4.92918427 13.586032,4.99304488 L13.5,5 L9.5,5 C9.25454011,5 9.05039163,4.82312484 9.00805567,4.58987563 L9,4.5 L9,1 L3.5,1 C3.25454011,1 3.05039163,1.17687516 3.00805567,1.41012437 L3,1.5 L3,14.5 C3,14.7454599 3.17687516,14.9496084 3.41012437,14.9919443 L3.5,15 L12.5,15 C12.7454599,15 12.9496084,14.8231248 12.9919443,14.5898756 L13,14.5 L13,7 C13,6.72385763 13.2238576,6.5 13.5,6.5 C13.7454599,6.5 13.9496084,6.67687516 13.9919443,6.91012437 L14,7 L14,14.5 C14,15.2796961 13.4051119,15.9204487 12.64446,15.9931334 L12.5,16 L3.5,16 C2.72030388,16 2.07955132,15.4051119 2.00686658,14.64446 L2,14.5 L2,1.5 C2,0.720303883 2.59488808,0.0795513218 3.35553999,0.00686657806 L3.5,0 Z M10,1.707 L10,4 L12.293,4 L10,1.707 Z"/></svg>

<svg width="16" height="16" fill="none" viewBox="0 0 16 16">
  <path fill="#242424" fill-rule="evenodd" d="m3.5.001 6.04.002.05.006.064.017.072.03.026.013.07.05 4.031 4.028a.5.5 0 0 1-.268.847l-.086.007h-4a.5.5 0 0 1-.491-.41L9 4.5V1H3.5a.5.5 0 0 0-.492.41L3 1.501v13a.5.5 0 0 0 .41.492L3.5 15h9a.5.5 0 0 0 .492-.41l.007-.09V7a.5.5 0 0 1 .992-.09l.008.09v7.5a1.5 1.5 0 0 1-1.355 1.493l-.145.007h-9a1.5 1.5 0 0 1-1.493-1.356L2 14.501v-13A1.5 1.5 0 0 1 3.355.008L3.5 0ZM10 1.708v2.293h2.293L10 1.708Z" clip-rule="evenodd"/>
</svg>
